X:1
T:12 Variationen, KV 265
T:über das französische Lied "Ah, vous dirai-je Maman" Wolfgang Amadeus Mozart, (Musikalische Bearbeitung für Streichquartett, Joan Pere Jové)
%%score 1 2 3 4
L:1/8
Q:1/4=120
M:2/4
K:C
V:1 treble nm="Violí 1" snm="Vln. 1"
V:2 treble nm="Violí 2" snm="Vln. 2"
V:3 alto nm="Viola" snm="Vla."
V:4 bass nm="Violoncel" snm="Vc."
V:1
|:"^TEMA.""_mf""_mf" ((C2 C2 | G2 G2)) | ((A2 A2 | G2 G2)) | z4 | z4 | z4 | z4 :: z4 | z4 | z4 | %11
 z4 | z4 | z4 | z4 | z4 | z4 | z4 | z4 | z4 | ((F2 F2 | E2 E2)) | ((D2 TD>E | C4)) :: %24
[M:2/4][Q:1/4=130]"^VAR. I."!mf!!mf! (d/c/B/c/ B/c/B/c/ | a/) z/ z z2 | (^g/a/c'/b/ d'/c'/b/a/) | %27
 a/ z/ z z2 | ((g/f/d'/c'/ b/a/g/f/-)) | f/ z/ z z2 | ((dagB |1 c2)) z2 :|2 c2 z2 |: z4 | %34
 ((g/=f/e/f/ e/f/g/f/)) | f/ z/ z z2 | ((e/d/^c/d/ c/d/e/d/ | a/)) z/ z z2 | %38
 ((g/=f/e/f/ d'/b/g/f/ | f/)) z/ z z2 | ((g>e)) =d z | z4 | (a/g/^f/g/ f/g/f/g/ | ^g/) z/ z z2 | %44
 (a/=g/e'/d'/ c'/b/a/g/-) | g/ z/ z z2 | (f/e/c'/b/ a/g/f/e/) | d/ z/ z z2 | z4 :: %49
[M:2/4][Q:1/4=130]"^VAR. II." z4 |!mp!"^Legato" g2 g2- | g2 f2- | f2 e2 | f2 f2 | e2 e2 | %55
 [cd]2 [Bd]2 | [Gc]2 z2 :: g2 g2 | f2 f2 | e>d e>f | e2 d2 | g2 g2 | f2 f2 | e>d e>f | e2 d2 | %65
 c2 Td2 | g2 g2- | g2 f2- | f2 e2- | e2 d2- | d2 c2 | [cd]2 [Bd]2 | [Ec]2 z2 :: %73
[M:2/4][Q:1/4=130]"^VAR. III."!mf! (3(CEG (3ceg | (3c') z z z2 | (3(Ta^ga (3c'ba | (3a) z z z2 | %77
 (3(e'=f).f (3.f.b.d' | (3d' z z z2 | (3(c'd).a (3(ag).B | Tc2 z2 :: z4 | (3(ge).=f (3(d'b).f | %83
 (3f z z z2 | (3(e^c).=d (3(fd).B | (3Tg z z z2 | (3(ge).=f (3(d'g).f | (3f z z C2 | (g>e =d2) | %89
 z4 | (3(c'gf (3Tedc | (3a) z z z2 | (3(a^f).=g (3.g.c'.e' | (3e' z z z2 | (3(d'e).e (3.e.a.c' | %95
 (3c' z z B,>D | z4 ::[M:2/4][Q:1/4=130]"^VAR. IV."!mf! c2 c2 | g2 g2 | a4 | g4 | f2 f2 | e2 e2 | %103
 d2 d2 | c2 z2 :: g2 (g2 | f4) | e2- (e>a | e2) (3(def) | g2 g2 | f4 | e2- e>(a | e2) (3(dfd) | %113
 c2 (c2 | g2) (g2 | a4) | (g4 | f2) (f2 | e2) (e2 | d2) (d2 | c2) z2 :: %121
[M:2/4][Q:1/4=130]"^VAR. V."!p! c2 z (c | g2) z (g | a2) z (a | g2) z g | z f z f | z e z e | %127
 z d z (d | c2) z2 :: g2 z (g | ^f2) z (=f | e2) z (_e | d2) z2 | z4 | z4 | z4 | z2 z (=f/d/) | %137
 c2 z (c/e/) | g2 z (g/e/) | a2 z (a/c'/) | g2 z2 | z4 | z4 | z4 | z4 :: %145
[M:2/4][Q:1/4=130]"^VAR. VI."!p! c z c z | g z g z | a z a z | g z g z | f z f z | e z e z | %151
 d z B z | c2 z2 :: z4 | z4 | z4 | (G/^F/G/F/ G/F/G/F/ | G/) z/ z z2 | (G/^F/G/F/ G/A/B/G/ | %159
 c/) z/ z z2 | (g/a/=f/g/ e/f/d/e/ | c) z c z | g z g z | a z a z | g z g z | f z f z | e z e z | %167
 d z B z | c2 z2 ::[M:2/4][Q:1/4=130]"^VAR. VII."!mf! (CD/E/ F/G/A/B/ | c/) z/ z z2 | %171
 (b/a/^g/a/ d'/c'/b/a/ | a/) z/ z z2 | z/ (=f/e'/)f/ z/ (f/d'/f/) | z4 | z/ (d/c'/d/) z/ (d/b/d/) | %176
 c'2 z2 :: z4 | (f/e/d/c/ B/A/G/F/ | E) z z2 | z4 | (g/c'/e'/d'/ c'/b/a/g/ | f/) z/ z z2 | %183
 E(.e.f.^f) | (g>e) d z | z4 | (c/d/e/f/ g/a/b/c'/ | b/) z/ z z2 | (a/g/^f/g/) z/ (g/e'/)g/ | z4 | %190
 z/ (e/d'/e/) z/ (e/c'/e/) | z4 | [eg]2 z2 ::[K:Eb][Q:1/4=110]"^VAR. VIII." z4 | z4 |!p! a4 | g4 | %197
 f4 | e4 | d4 | z4 :: z (gag) | (^f2 =f2) | =e2 (_e2- | e2 d2-) | d2 c2- | [=Ac]2 =B2 | .c.c.d.e | %208
 (gf).e.d | .c.d.e.f | (^fg/) z/ (fg/) z/ | (g2 f2- | =f2) e2- | e2 d2- | d2 c2- | c2 (=B2 | %216
 c2) z2 ::[K:C][M:2/4][Q:1/4=130]"^VAR. IX."!p! .c2 .c2 | .g2 g2- | g2 f2- | f2 e2- | e2 d2- | %222
 d2 (cc | cB AB | c2) z2 :: .g2 .g2 | .f2 .f2 | .e2 (e>f) | (e2 d2 | c2) c2- | cBAB | c.c.d.e | %232
 .f.g.a.b | .c'2 .c'2 | .g2 .g2 | .a2 .a2 | .g2 (e>g) | .f2 (d>f) | .e2 .c2 | (cB AB | c2) z2 :: %241
[M:2/4][Q:1/4=130]"^VAR. X." z/!p! (E/c/E/)"^L.H." z/ (E/G/E/) | z/ (E/c/E/) z/ (E/c/E/) | %243
 z/ (F/c/F/) z/ (F/c/F/) | z/ (E/c/E/) z/ (_B/g/B/) | z/ (A/^f/A/) z/ (_A/=f/A/) | %246
 z/ (G/e/G/) z/ (=A/_e/A/) | z/ (G/d/G/) z/ (=F/d/F/) | c2 z2 :: z2 (g2 | ^f2 =f2 | %251
 e2) z/ (G/c/G/) | z/ (A/c/A/) z/ (_A/B/A/) | z/ (G/c/G/) z/ (G/^c/G/) | z/ (A/d/A/) z/ (_A/d/A/) | %255
 z/ (G/=c/G/) z/ (=A/c/A/) | (d/c/B/A/ G/F/E/D/) | z/ (E/c/E/) z/ (E/G/E/) | %258
 z/ (E/c/E/) z/ (E/c/E/) | z/ (F/c/F/) z/ (F/c/F/) | z/ (E/c/E/) z/ (_B/g/B/) | %261
 z/ (A/^f/A/) z/ (_A/=f/A/) | z/ (G/e/G/) z/ (=A/_e/A/) | z/ (G/d/G/) z/ (=F/d/F/) | c2 z2 :: %265
[M:2/4][Q:1/4=43]"^VAR. XI."[Q:1/4=45]"^Adagio."!p! (c>G) (e>c) | g g2 g | a a2 a | g g2 g | %269
 (g/f/)f z/ (e'/4d'/4)(c'/4b/4)(a/4g/4) | (f/>^d/e) z/ (a/4g/4)(f/4e/4)(=d/4c/4) | %271
 (B/>A/)(g/4f/4e/4d/4 c).B | (!>!d2 c) z ::[Q:1/4=44]"^44" z/ E/E/E/ z/ E/E/E/ | %274
 z/ F/F/F/ z/ F/F/F/ | G>G G>D |!mf! (e3/2f/4e/4 B,) z | z/ G/G/G/ z/ G/G/G/ | %278
 z/ F/"^cresc."F/F/ z/ F/F/F/ | %279
 E[Q:1/4=32]"^32"[Q:1/4=20] !fermata!^F2 z[Q:1/4=44]"^44"[Q:1/4=45] | %280
 z3[Q:1/4=30]"^30"[Q:1/8=1] (3!fermata!z/4[Q:1/4=43]"^43"[Q:1/4=45]"_p" (a/4g/4(3=f/4e/4d/4) | %281
 (c>G) (e>c) | g g2 g | a a2 a | g g2 g | (g/f/)f z/ (e'/4d'/4)(c'/4b/4)(a/4g/4) | %286
 (f/>^d/e) z/ (a/4g/4)(f/4e/4)(=d/4c/4) | (B/>A/)(g/4f/4e/4d/4 c).B | !>!d2 c z :: %289
[M:3/4][Q:1/4=130]"^VAR. XII."[Q:1/4=130]!f! c2 z2 (Td3/2B/4c/4 | g2) z2 z2 | a2 a2 a2 | %292
 g2 z2 (Ta3/2^f/4g/4 | ^f2) z4 | z2 z2 Td3/2B/4c/4 | d2 f2 F2 | E2 z4 :: %297
 (a/g/^f/g/ f/g/f/g/ f/g/f/g/ | g/) z/ z z4 | (f/e/^d/e/ d/e/d/e/ d/e/d/e/) | e/ z/ z z4 | %301
 (a/g/^f/g/ f/g/f/g/ e'/g/e'/g/ | g/) z/ z z4 | (f/e/^d/e/ d/e/d/e/ c'/e/c'/e/ | e/) z/ z z4 | %305
 c2 z2 (Td3/2B/4c/4 | g2) z2 z2 | a2 a2 (a2 | g2) z2 (Ta3/2^f/4g/4 | ^f2) z2 z2 | %310
 z2 z2 (Td3/2B/4c/4 | d2 f2) (B2 |1 c2) z4 :|2 c2 z4 || z2 z2 (Tg3/2e/4f/4 | e2) z4 | z2 z2 B2 | %317
 (c/G/A/B/) (c/d/e/f/) (g/a/b/c'/) | (g/a/f/g/) (e/f/d/e/) (c/d/B/d/ | E2) z2 z2 | (EDCFED) | %321
 E2 z/ (C/B,/C/) z/ (E/^D/E/) | z6 | z/ (c/B/c/) z/ (e/^d/e/) z/ (g/^f/g/) | [cc']2 z2 z2 |] %325
V:2
|: z4 | z4 | z4 | z4 | z4 | z4 | z4 | z4 :: z4 | z4 | z4 | z4 | z4 | z4 | z4 |!p! G,4 | %16
!mf!!mf! ((C2 C2 | G2 G2)) | ((A2 A2 | G2 G2)) | z4 | z4 | z4 | z4 ::[M:2/4] z4 | %25
!mf!!mf! (a/g/^f/g/ f/g/f/g/) | ^g/ z/ z z2 | ((a/=g/e'/d'/ c'/b/a/g/-)) | g/ z/ z z2 | %29
 (f/e/c'/b/ a/g/f/e/) | d/ z/ z z2 |1 z4 :|2 z4 |: ((a/g/^f/g/ f/g/a/g/ | g/)) z/ z z2 | %35
 ((f/e/^d/e/ d/e/f/e/ | f/)) z/ z z2 | ((a/g/^f/g/ e'/c'/a/g/ | g/)) z/ z z2 | %39
 (f/e/^d/e/ c'/g/f/e/ | g/) z/ z z2 | ((d/c/B/c/ B/c/B/c/ | c/)) z/ z z2 | (^g/a/c'/b/ d'/c'/b/a/ | %44
 a/) z/ z z2 | (g/f/d'/c'/ b/a/g/f/-) | f/ z/ z z2 | ((dagB | c2)) z2 :: %49
[M:2/4]!mp!"^Legato" c2 c2 | c2 c2- | [c-a]4 | [c-g]4 | [ce]2 [Gd]2 | [Ge]2 [Ac]2 | A2 G>F | %56
 E2 z2 :: c2 c2 | c2 B2 | c>d c>f | B4 | c2 c2 | c2 B2 | G>d G2 | G4 | [EG]2 z2 | z2 c2- | %67
 [ca]2 [ca]2 | g2 [_Bg]2 | [A^f]2 [_A=f]2 | [Ge]2 [Ae]2 | A2 G>F | G2 z2 ::[M:2/4] z4 | %74
!mf! (3(c'gf (3Tedc | (3a) z z z2 | (3(a^f.=g (3.g.c'.e') | (3e' z z z2 | (3(d'e).e (3.e.a.c' | %79
 (3c' z z F2 | z4 :: (3(g^f).g (3(e'c').g | (3g z z z2 | (3(f^d).e (3(c'g).e | (3(e z) z z2 | %85
 (3(Tg^f).g (3(e'c').g | (3g z z z2 | (3(f^d).e (3(c'a).e | g z z2 | (3(CEG (3ceg | (3c') z z z2 | %91
 (3(a^g)a (3c'ba | (3a z z z2 | (3(e'=f).f (3.f.b.d' | (3d' z z z2 | (3(c'd).a (3(ag).B | c2 z2 :: %97
[M:2/4]!mp! G2 z2 | e2 z2 | (g2 f2) | (f2 e2) | (e2 d2) | (d2 c2) | (c2 B2 | G2) z2 :: e2 e2 | %106
 (e2 d2) | (d2 c2) | (c2 B2) | e2 e2 | (e2 d2) | (d2 c2) | (c2 B2) | G2 z2 | e2 z2 | (g2 f2) | %116
 (f2 e2) | (e2 d2) | (d2 c2) | (c2 B2 | G2) z2 ::[M:2/4] z4 | z4 | z4 | %124
 z2 z!p!"^Sul legno battuto" e | z e z d | z d z c | z c z B | z4 :: z4 | z4 | z4 | %132
 z2 z"^Arco" (G | g2) z (g/^f/) | =f2 z (f/e/) | _e2 z (^f/g/) | d2 z2 | z4 | z4 | z4 | %140
 z2 z (e/g/) | z (g/^f/) z (d/=f/) | z (f/e/) z (g/e/) | z (^c/d/) z (f/d/) | z (B/=c/) z2 :: %145
[M:2/4]!p! G z G z | e z e z | g z f z | f z e z | e z d z | d z c z | A z F z | G2 z2 :: z4 | z4 | %155
 z4 | z4 | (G/^F/G/F/ G/F/G/F/ | G/) z/ z z2 | (c/B/c/d/ e/d/e/^f/ | g/) z/ z z2 | z2 G z | %162
 e z e z | g z f z | f z e z | e z d z | d z c z | A z F z | G2 z2 ::[M:2/4] z4 | %170
!mf! (c/d/e/f/ g/a/b/c'/ | b/) z/ z z2 | (a/g/^f/g/) z/ (g/e'/)g/ | z4 | %174
 z/ (e/d'/e/) z/ (e/c'/e/) | z4 | [eg]2 z2 :: (g/c'/e'/d'/ c'/b/a/g/ | f/) z/ z z2 | E(.e.f.^f) | %180
 (g>e d) z | z4 | (f/e/d/c/ B/A/G/F/ | E) z z2 | z4 | (CD/E/ F/G/A/B/ | c/) z/ z z2 | %187
 (b/a/^g/a/ d'/c'/b/a/ | a/) z/ z z2 | z/ (=f/e'/)f/ z/ (f/d'/f/) | z4 | z/ (d/c'/d/) z/ (d/b/d/) | %192
 c'2 z2 ::[K:Eb]!p! .c.d.e.f | g2 g2- | g2 f2- | f2 e2- | e2 d2- | d2 c2- | c2 =B2 | c2 z2 :: G4 | %202
 (=A2 =B2) | (cG _AG) | (^F2 =F2) | (=E2 _E2- | E2) (_A2 | G4) | G4 | z4 | z4 | a4 | =g4 | f4 | %214
 e4 | d4 | c2 z2 ::[K:C][M:2/4] z4 | z4 |!p! a4 | g4 | f4 | e4 | F4 | E2 z2 :: z4 | z4 | .c2 .c2 | %228
 .B2 .B2 | G4 | G4 | G4 | G2 z2 | z4 | z4 | f2 (f2 | c2) (c2 | B2) B2 | .e2 (G2 | F4 | G2) z2 :: %241
[M:2/4] z2!p! c2 | g2 g2 | a2 a2 | g2 z/ (_B/e/B/) | z/ (A/d/A/) z/ (_A/d/A/) | %246
 z/ (G/c/G/) z/ (=A/c/A/) | z/ (G/c/G/) z/ (=F/B/F/) | =E2 z2 :: z/ (E/c/E/) z/ (E/c/E/) | %250
 z/ (D/c/D/) z/ (D/B/D/) | z/ (C/c/C/) z/ (G/_e/G/) | z/ (A/d/A/) z/ (_A/d/A/) | %253
 z/ (G/=e/G/) z/ (G/g/G/) | z/ (A/^f/A/) z/ (_A/=f/A/) | z/ (G/e/G/) z/ (=A/_e/A/) | B z z2 | %257
 z2 c2 | g2 g2 | a2 (a2 | g2) z/ (_B/e/B/) | z/ (A/d/A/) z/ (_A/d/A/) | z/ (G/c/G/) z/ (=A/c/A/) | %263
 z/ (G/c/G/) z/ (=F/B/F/) | G2 z2 ::[M:2/4] z4 | z4 | g!p! f2 f | f e2 e | F z G z | G z C z | z4 | %272
 !>![GB]2 G z ::!mf! (g3/2a/4b/4 c'/).b/.a/.g/ | (g/f/4) z/4 (e/d/4) z/4 (cB/) z/ | %275
 c3/2{dcBc}d/ (e3/2{fedeg}f/) |!p! C2 d/.e/.f/.^f/ | (g3/2a/4b/4 c'/4d'/4e'/4d'/4c'/4b/4a/4g/4) | %278
 (g/4f/4)f'/4e'/4(e'/4d'/4)(d'/4c'/4) (c'/4b/4)(b/4a/4)(a/4g/4)(g/4f/4) | %279
 ((e/>c'/))!fermata!c'- c'/4(d'/4e'/4d'/4 c'/>)^f/ | (a2 g) z | z4 | z4 | g!p! f2 f | f e2 e | %285
 F z G z | G z C z | z4 | !>![GB]2 G z ::[M:3/4]!f! G2 z2 z2 | z2 z2 (Td3/2B/4c/4) | g2 f2 f2 | %292
 e2 z2 z2 | z2 z2 (Tg3/2e/4f/4 | e2) z2 z2 | d2 f2 B2 | c2 z4 :: z6 | %298
 (g/=f/e/f/ e/f/e/f/ e/f/e/f/ | f/) z/ z z4 | (e/=d/^c/d/ c/d/c/d/ c/d/c/d/ | a/) z/ z z4 | %302
 (g/=f/e/f/ e/f/e/f/ d'/f/d'/f/ | f/) z/ z z4 | (e/=d/^c/d/ c/d/c/d/ g/B/g/B/) | G2 z2 z2 | %306
 z2 z2 (Td3/2B/4c/4) | g2 f2 (f2 | e2) z2 z2 | z2 z2 (Tg3/2e/4f/4 | e2) z2 z2 | z4 (F2 |1 %312
 E2) z4 :|2 G2 z2 (Ta3/2^f/4g/4 || ^f2) z4 | z2 z2 (Td3/2B/4c/4 | d2) z2 F2 | z6 | (EDCFED) | %319
 (c/G/A/B/) (c/d/e/f/) (g/a/b/c'/) | (g/a/f/g/) (e/f/d/e/) (c/d/B/d/ | c2) z2 z2 | %322
 z/ (G/^F/G/) z/ (E/^D/E/) z/ (G/F/G/) | z6 | [ce]2 z2 z2 |] %325
V:3
|: z4 | z4 | z4 | z4 |!mf!!mf! ((F2 F2 | E2 E2)) | ((D2 D>E | C4)) :: %8
"^Pizz."!p!"^Pizz."!p! E2 G,2 | D2 G,2 | C2 G,2 | B,2 G,2 | E2 G,2 | D2 G,2 | C2 C>D | C2 B,2 | %16
 z4 | z4 | z4 | z4 | z4 | z4 | z4 | z4 ::[M:2/4]"^Arco"!mp!"^Arco"!mp! (C,2 C2 | E2 C2) | (F2 C2 | %27
 E2) z3/2 (^C/ | D2) z3/2 (B,/ | =C2) z3/2 (A,/ | F,2 G,2) |1 ((CG, E,G,)) :|2 C2 z2 |: (E2 G,2 | %34
 D2 G,2) | (C2 G,2 | F2 G,2) |"^Arco"!mp!"^Arco"!mp! E4 | D4 | (C7/2 C/ | E>C B,2) | (C,2 C2 | %42
 E2 C2) | (F2 C2 | E2) z3/2 (^C/ | D2) z3/2 (B,/ | =C2) z3/2 (A,/ | F,2 G,2 | C2) z2 :: %49
[M:2/4] z/"^Legato"!p! C/B,/C/ D/C/B,/C/ | z/ C/B,/C/ D/C/B,/C/ | z/ C/B,/C/ D/C/B,/C/ | %52
 z/ C/B,/C/ D/C/B,/C/ | z/ A,/^G,/A,/ z/ B,/^A,/B,/ | z/ C/B,/C/ z/ =A,/^G,/A,/ | %55
 z/ F,/E,/F,/ z/ =G,/^F,/G,/ | z4 :: z/ E/^D/E/ F/E/D/E/ | z/ =D/^C/D/ E/D/C/D/ | %59
 z/ G/^F/G/ A/G/F/G/ | z/ =F/E/F/ G/F/E/F/ | z/ E/^D/E/ F/E/D/E/ | z/ =D/^C/D/ E/D/C/D/ | %63
 z/ =C/B,/C/ D/C/B,/C/ | z/ B,/^A,/B,/ C/B,/A,/B,/ | z/ C/B,/C/ D/C/B,/C/ | z/ C/B,/C/ D/C/B,/C/ | %67
 z/ C/B,/C/ D/C/B,/C/ | z/ C/B,/C/ z/ ^C/^B,/C/ | z/ D/^C/D/ z/ B,/^A,/B,/ | %70
 z/ =C/B,/C/ z/ =A,/^G,/A,/ | z/ F,/E,/F,/ z/ =G,/^F,/G,/ | z4 ::[M:2/4] z4 |!mp! C4 | C4 | C4 | %77
 (C2 D2 | E2 C2 | A,2) (G,>D | (3EG,E, C,2) :: (E2 C2 | D2 B,2) | (C2 E2 | F4) | (E2 ^C2 | %86
 D2 B,2) | (=C2 A,2 | E>C B,2) | z4 | C4 | C4 | C4 | (C2 D2 | E2 C2) | A,2 (G,2 | (3EG,E, C,2) :: %97
[M:2/4]!mp! E2 z2 | c2 z2 | c4 | c4 | (c2 G2) | (G2 A2) | (A2 F2 | E2) z2 :: z4 | z4 | z4 | z4 | %109
 z4 | z4 | z4 | z4 | E2 z2 | c2 z2 | c4 | c4 | (c2 G2) | (G2 A2) | (A2 F2 | E2) z2 :: %121
[M:2/4] z"^Pizz."!p! C E2 | z E C2 | z F C2 | z E C2 | D z B, z | C z A, z | F, z G, z | z4 :: %129
 z (E G,2) | z (D G,2) | z (C G,2) | z (B, G,2) | z (E G,2) | z (D G,2) | z (C G,2) | z (B, G,2) | %137
 z4 | z (C/E/) G2 | z (F/A/) C2 | z (E/G/) C2 | D z B, z | C z E, z | F, z G, z | C z C, z :: %145
[M:2/4]!p!"^Arco" E z E z | c z c z | c z c z | c z c z | A z G z | G z A z | F z D z | E2 z2 :: %153
 (G,/^F,/G,/F,/ G,/F,/G,/F,/) | (G,/^F,/G,/F,/ G,/A,/B,/G,/) | (C/B,/C/D/ E/D/E/^F/) | D,2 (D,2 | %157
 G,2) (G,2 | F,2) (F,2 | E,2) (E,2 | D,2) z2 | z2 E z | c z c z | c z c z | c z c z | A z G z | %166
 G z A z | F z D z | E2 z2 ::[M:2/4]!mp! C,4 | z4 | z4 | z2 (C2 | A,2 B,2) | (^G,2 A,2) | %175
 (F,2 =G,2 | C,2) z2 :: E4 | D4 | C4 | B,4 | E4 | D4 | C4 | B,4 | C,4 | z4 | z4 | z2 C2 | A,2 B,2 | %190
 ^G,2 A,2 | F,2 =G,2 | C,2 z2 ::[K:Eb] z4 | z4 |!p! .F.G.A.B | c2 c2 | z4 | z4 | z4 | z4 :: %201
[K:alto] G,4- | G,4 | G,4 | (=A,2 =B,2) | (C G,_A,G,) | (^F,2 =F,2) | (=E,2 _E,2) | (D,2 G,2 | %209
 C,2) z2 | z4 | .F.G.A.B | (=Bc/) z/ (Bc/) z/ | z4 | z4 | z4 | z4 ::[K:C][M:2/4] z4 | z4 | %219
!p! .F2 .F2 | .c2 .c2 | .G,2 .G,2 | .C2 .C2 | D4 | z4 :: z4 | z4 |"^Arco" .G2 .G2 | .F2 .F2 | %229
 .E2 .E2 | .D2 .D2 |"^Pizz." E,2 E,2 | D,2 D,2 | .C,2 z2 | z4 | z4 | z4 |"^Arco" .G2 .G2 | %238
 .C2 .C2 |"^Pizz." G,2 G,2 | C,2 z2 ::[M:2/4]!p! C,2 z2 | z4 | z4 | z2 (^C2 | D2 B,2) | %246
 (=C2 ^F,2) | G,2 z2 | C,2 z2 :: G,2 z2 | z4 | z2 (G2 | ^F2 =F2) | (E2 _E2 | D2 B,2) | (C2 ^F,2 | %256
 G,2) z2 | C2 z2 | z4 | z4 | z2 (^C2 | D2 B,2) | (=C2 ^F,2 | G,2) z2 | E2 z2 ::[M:2/4] z4 | z4 | %267
 c!p! c2 c | c c2 c | C z D z | E z G, z | D2 GF | (!>!F2 E) z :: z/ C/C/C/ z/ C/C/C/ | %274
 z/ D/D/D/ z/ D/D/D/ | (E>B, C>F,) | (G,2 G,) z | z/ E/E/E/ z/ E/E/E/ | z/ D/D/D/ z/ D/D/D/ | %279
 C !fermata!C2 z | (C2 B,) !fermata!z | z4 | (C>G,) (E>C) | c c2 c | c c2 c | C z D z | E z G, z | %287
 D2 ED | !>!F2 E z ::[M:3/4]!f! E2 z2 z2 | z6 | c2 c2 c2 | c2 z4 | z6 | z6 | z4 D2 | z6 :: %297
 (G,/E/^D/E/ D/E/D/E/ D/E/D/E/ | G,/) z/ z z4 | G,/(=C/B,/C/ B,/C/B,/C/ B,/C/B,/C/) | G,/ z/ z z4 | %301
 G,/(E/^D/E/ D/E/D/E/ G,/E/G,/E/) | G,/ z/ z z4 | (G,/=C/B,/C/ B,/C/B,/C/ G,/C/G,/C/ | %304
 G,/) z/ z z4 | E2 z2 z2 | z6 | c2 c2 c2 | c2 z2 z2 | z6 | z2 z2 z2 | z4 D2 |1 z6 :|2 E2 z4 || z6 | %315
 z6 | z2 z2 D2 | C,2 z2 z2 | G,6 | C2 z2 z2 | G,6 | z2 (C,2 E,2) | (G,2 E,2 G,2) | (C,2 E,2 G,2 | %324
 [G,C]2) z2 z2 |] %325
V:4
|:"^Pizz."!p!"^Pizz."!p! C,2 C2 | E2 C2 | F2 C2 | E2 C2 | D2 B,2 | C2 A,2 | F,2 G,2 | C,4 :: %8
"^Arco"!mf!"^Arco"!mf! ((G,2 G,2 | F,2 F,2)) | ((E,2 E,2 | D,2 D,2)) | ((G,2 G,2 | F,2 F,2)) | %14
 ((E,2 TE,>F, | E,2 D,2)) |"^Pizz."!p!"^Pizz."!p! C,2 C2 | E2 C2 | F2 C2 | E2 C2 | D2 B,2 | %21
 C2 A,2 | F,2 G,2 | C,2 z2 ::[M:2/4] z4 | z4 | z4 | z4 | z4 | z4 | z4 |1 z4 :|2 z2"^Arco" C,2 |: %33
 z4 | z4 | z4 | z4 |"^Arco"!mp!"^Arco"!mp! G,4 | G,4 | (G,2 C2 | G,4) | z4 | z4 | z4 | z4 | z4 | %46
 z4 | z4 | z2 C,2 ::[M:2/4]"^Legato"!p! C,/C/ z z2 | E,/C/ z z2 | F,/C/ z z2 | C,/C/ z z2 | %53
 A,,/A,/ z B,,/B,/ x | C,/C/ z =A,,/=A,/ z | F,,/F,/ z =G,,/=G,/ z | C,,2 C,2 :: G,/E/ z z2 | %58
 G,/=D/ z z2 | G,/G/ z z2 | G,/=F/ z z2 | G,/E/ z z2 | G,/=D/ z z2 | G,/=C/ z z2 | G,/B,/ z z2 | %65
 C,/C/ z z2 | E,/C/ z z2 | F,/C/ z z2 | C,/C/ z ^C,/^C/ z | D,/D/ z B,,/B,/ z | %70
 =C,/=C/ z =A,,/=A,/ z | F,,/F,/ z =G,,/=G,/ z | C,,2 C,2 ::[M:2/4]!mp! (C,,2 C,2 | E,2 C,2) | %75
 (F,2 C,2 | E,2 C,2) | (A,2 B,2 | C2 A,2 | F,2) (B,>D | (3CG,E, C,2) :: G,4 | G,4 | G,4 | G,4 | %85
 G,4 | G,4 | (G,2 ^F,2 | G,4) | (C,,2 C,2 | E,2 C,2) | (F,2 C,2 | E,2 C,2) | (A,2 B,2 | C2 A,2 | %95
 F,2 G,2) | (3CG,E, C,2 ::[M:2/4]!mp!!mp! (3(C,,E,,G,, (3C,E,C,) | (3(C,,E,,G,, (3C,E,C,) | %99
 (3(C,,F,,A,, (3C,F,C,) | (3(C,,E,,G,, (3C,E,C,) | (3.A,,(^G,A,) (3.B,,(^A,B,) | %102
 (3.C,(B,C) (3.=A,,(^G,=A,) | (3.F,,(E,F,) (3.=G,,(^F,=G,) | (3(C,,E,,G,, C,2) :: %105
 (3(G,,C,E, (3G,CE) | (3(G^FG (3G,A,B,) | (3(CB,C (3C,E,=F,) | (3(G,^F,G, G,,2) | %109
 (3(G,,C,E, (3G,CE) | (3(G^FG (3G,A,B,) | (3(CB,C (3C,E,=F,) | (3(G,^F,G, G,,2) | %113
 (3(C,,E,,G,, (3C,E,C,) | (3(C,,E,,G,, (3C,E,C,) | (3(C,,F,,A,, (3C,F,C,) | %116
 (3(C,,E,,G,, (3C,E,C,) | (3.A,,(^G,A,) (3.B,,(^A,B,) | (3.C,(B,C) (3.=A,,(^G,=A,) | %119
 (3.F,,(E,F,) (3.=G,,(^F,=G,) | (3(C,,E,,G,, C,2) ::[M:2/4] z4 | z4 | z4 | z4 | z4 | z4 | z4 | %128
 z"^Pizz."!p! C C,2 :: z4 | z4 | z4 | z4 | z4 | z4 | z4 | z4 | z (C,/E,/) G,2 | z4 | z4 | z4 | z4 | %142
 z4 | z4 | z4 ::[M:2/4]!p!"^Arco" (C,/B,,/C,/B,,/ C,/B,,/C,/B,,/) | (C,/B,,/C,/B,,/ C,/D,/E,/C,/) | %147
 (F,/E,/F,/E,/ F,/G,/A,/B,/) | (C/B,/C/B,/ C/D/E/C/) | (D/^C/D/=C/ B,/A,/B,/G,/) | %150
 (C/B,/C/B,/ A,/^G,/A,/=G,/) | (F,/E,/F,/D,/ G,/^F,/G,/G,,/) | (C,/G,,/E,,/G,,/ C,,2) :: %153
 [G,,E,]2 ([G,,E,]2 | [G,,=F,]2) ([G,,D,]2 | [G,,E,]2) ([G,,C,]2 | [G,,B,,]2) ([G,,B,,]2 | %157
 [G,,E,]2) ([G,,E,]2 | [G,,D,]2) ([G,,D,]2 | [G,,C,]2) ([G,,C,]2 | [G,,B,,]2) z2 | %161
 (C,/B,,/C,/B,,/ C,/B,,/C,/B,,/) | (C,/B,,/C,/B,,/ C,/D,/E,/C,/) | (F,/E,/F,/E,/ F,/G,/A,/B,/) | %164
 (C/B,/C/B,/ C/D/E/C/) | (D/^C/D/=C/ B,/A,/B,/G,/) | (C/B,/C/B,/ A,/^G,/A,/=G,/) | %167
 (F,/E,/F,/D,/ G,/^F,/G,/G,,/) | (C,/G,,/E,,/G,,/ C,,2) ::[M:2/4]!mp! C,,4 | (E,2 C,2) | %171
 (F,2 C,2) | (E,2 C,2) | (A,,2 B,,2) | (^G,,2 A,,2) | (F,,2 =G,,2 | C,,2) z2 :: G,4 | G,4 | G,4 | %180
 G,4 | G,4 | G,4 | G,4 | G,4 | C,,4 | E,2 C,2 | F,2 C,2 | E,2 C,2 | A,,2 B,,2 | ^G,,2 A,,2 | %191
 F,,2 =G,,2 | C,,2 z2 ::[K:Eb] z4 | z4 | z4 | z4 |!p! .G,.=A,.=B,.G, | .C.G,._A,.E, | %199
 .F,.D,.G,.G,, | C,2 C,,2 :: G,,4- | G,,4 | G,4 | G,4 | z (G,,_A,,G,,) | (^F,,2 =F,,2) | %207
 (=E,,2 _E,,2) | (D,,2 G,,2 | C,,2) z2 | z4 | z4 | z4 |[K:bass] .G,.=A,.=B,.G, | .C.G,._A,.E, | %215
 .F,.D,.G,.G,, | (C,2 C,,2) ::[K:C][M:2/4] z4 | z4 | z4 | z4 | z4 | z4 |!p! (G,,2 G,,2 | %224
 C,,2) z2 :: z4 | z4 | z4 | z4 | .G,2 .G,2 | .F,2 .F,2 |"^Pizz." G,,2 G,,2 | F,,2 F,,2 | E,,2 z2 | %234
 z4 | z4 | z4 | z4 | z4 | G,,2 G,,2 | C,,2 z2 ::[M:2/4]"^Arco"!p! C,,2 z2 | z4 | z4 | z2 (^C,2 | %245
 D,2 B,,2) | (=C,2 ^F,,2) | G,,2 G,,2 | z2 C,,2 :: G,,2 z2 | z4 | z2 (G,2 | ^F,2 =F,2) | %253
 (E,2 _E,2 | D,2 B,,2) | (C,2 ^F,,2 | G,,2) z2 | C,2 z2 | z4 | z4 | z2 (^C,2 | D,2 B,,2) | %262
 (=C,2 ^F,,2 | G,,2 G,,2) | (C,2 C,,2) ::[M:2/4] z4 |!p! (C>G,) (E>C) | (F,>C,) (A,>F,) | %268
 (C,>G,,) (E,>C,) | A, z B, z | C z E, z | F,2 G,2 | CG,C, z :: (G,/C/) z (G,/C/) z | %274
 (G,/D/) z (G,/D/) z | z4 | z4 | (G,/E/) z (G,/E/) z | (G,/D/) z (G,/D/) z | z !fermata!A,2 z | %280
 G,3 !fermata!z | z4 | z4 | (F,>C,) (A,>F,) | (C,>G,,) (E,>C,) | A, z B, z | C z E, z | F,2 G,2 | %288
 (CG,C,) z ::[M:3/4]!f! (C,,/C,/B,,/C,/ D,/C,/B,,/C,/ D,/C,/B,,/C,/) | %290
 (E,,/C,/B,,/C,/ D,/C,/B,,/C,/ D,/C,/B,,/C,/) | (F,,/C,/B,,/C,/ D,/C,/B,,/C,/ D,/C,/B,,/C,/) | %292
 (C,,/C,/B,,/C,/ D,/C,/B,,/C,/) (^C,,/^C,/B,,/C,/) | %293
 (D,,/D,/^C,/D,/ E,/D,/C,/D,/) (B,,/B,,/A,,/B,,/) | %294
 (=C,,/=C,/B,,/C,/ D,/C,/B,,/C,/) (A,,/A,,/^G,,/A,,/) | %295
 (F,,/F,,/E,,/F,,/ =G,,/F,,/E,,/F,,/) (G,,/G,,/^F,,/G,,/) | %296
 (C,,/D,,/E,,/=F,,/ G,,/A,,/B,,/C,/ C,,2) :: z6 | G,/(=D/^C/D/ C/D/C/D/ C/D/C/D/) | G,/ z/ z z4 | %300
 (G,/F/E/F/ E/F/E/F/ E/F/E/F/ | G,/) z/ z z4 | G,/(=D/^C/D/ C/D/C/D/ G,/D/G,/D/) | G,/ z/ z z4 | %304
 G,/(F/E/F/ E/F/E/F/ G,/F/G,/F/) | C,/(C/B,/C/ D/C/B,/C/ D/C/B,/C/) | %306
 E,/(C/B,/C/ D/C/B,/C/ D/C/B,/C/) | F,/(C/B,/C/ D/C/B,/C/ D/C/B,/C/) | %308
 C,/(C/B,/C/ D/C/B,/C/) (^C,/^C/B,/C/) | D,/(D/^C/D/ E/D/C/D/) B,,/(B,/A,/B,/) | %310
 C,/(C/B,/C/ D/C/B,/C/) A,,/(A,/^G,/A,/) | F,,/(F,/E,/F,/ =G,/F,/E,/F,/) G,,/(G,/^F,/G,/) |1 %312
 (C,/D,/E,/F,/ G,/A,/B,/C/) C,2 :|2 E,,/(E,/D,/E,/ F,/E,/D,/E,/) (_E,,/_E,/D,/E,/) || %314
 (D,,/D,/^C,/D,/ =E,/D,/C,/D,/) (B,,/B,,/A,,/B,,/) | %315
 (=C,,/=C,/B,,/C,/ D,/C,/B,,/C,/) (A,,/A,,/^G,,/A,,/) | %316
 (F,,/F,,/E,,/F,,/) (=G,,/F,,/E,,/F,,/) (G,,/G,,/^F,,/G,,/) | [C,,E,,]2 z2 z2 | z6 | z6 | z6 | %321
 z2 (C,,2 E,,2) | (G,,2 E,,2 G,,2) | (C,,2 E,,2 G,,2 | [C,E,]2) z2 z2 |] %325

